svgs/thin/square-g.svg

<svg xmlns="http://www.w3.org/2000/svg" viewBox="0 0 448 512"><!--! Font Awesome Pro 6.3.0 by @fontawesome - https://fontawesome.com License - https://fontawesome.com/license (Commercial License) Copyright 2023 Fonticons, Inc. --><path d="M344 255.5H256c-4.406 0-8 3.578-8 8s3.594 8 8 8h79.69c-.8125 9.75-3.062 18.75-6.781 26.84C323.2 310.9 314.6 323.1 304 333.9c-41.13 41.67-108 44.89-152.4 7.078C127.4 320.3 113.3 291.6 112.1 260C110.8 228.8 122.8 198.3 144.8 176.3c42.06-42 109.6-43.92 153.8-4.297c3.312 2.984 8.375 2.703 11.31-.6094c2.938-3.297 2.656-8.359-.625-11.3c-50.59-45.3-127.8-43.13-175.8 4.891C108.3 190.2 94.69 225 96.09 260.6c1.469 36.09 17.5 68.95 45.16 92.52c23.75 20.22 53.13 30.2 82.5 30.2c33.34 0 66.69-12.88 91.63-38.25c11.88-12.05 21.59-25.92 28.09-40.11C349.1 292.7 352 278.7 352 263.5C352 259.1 348.4 255.5 344 255.5zM384 32H64C28.65 32 0 60.65 0 96v320c0 35.35 28.65 64 64 64h320c35.35 0 64-28.65 64-64V96C448 60.65 419.3 32 384 32zM432 416c0 26.47-21.53 48-48 48H64c-26.47 0-48-21.53-48-48V96c0-26.47 21.53-48 48-48h320c26.47 0 48 21.53 48 48V416z"/></svg>

<svg xmlns="http://www.w3.org/2000/svg" viewBox="0 0 448 512"><!-- Font Awesome Pro 6.0.0-alpha2 by @fontawesome - https://fontawesome.com License - https://fontawesome.com/license (Commercial License) --><path d="M344 255.5H256C251.594 255.5 248 259.078 248 263.5S251.594 271.5 256 271.5H335.688C334.875 281.25 332.625 290.25 328.906 298.344C323.188 310.859 314.562 323.141 304 333.891C262.875 375.562 195.969 378.781 151.625 340.969C127.406 320.344 113.344 291.594 112.094 260C110.844 228.844 122.781 198.328 144.812 176.297C186.875 134.297 254.406 132.375 298.656 172C301.969 174.984 307.031 174.703 309.969 171.391C312.906 168.094 312.625 163.031 309.344 160.094C258.75 114.797 181.531 116.969 133.5 164.984C108.312 190.156 94.688 225.031 96.094 260.641C97.562 296.734 113.594 329.594 141.25 353.156C165 373.375 194.375 383.359 223.75 383.359C257.094 383.359 290.438 370.484 315.375 345.109C327.25 333.063 336.969 319.188 343.469 305C349.125 292.656 352 278.688 352 263.5C352 259.078 348.406 255.5 344 255.5ZM384 32H64C28.654 32 0 60.654 0 96V416C0 451.346 28.654 480 64 480H384C419.346 480 448 451.346 448 416V96C448 60.654 419.346 32 384 32ZM432 416C432 442.467 410.467 464 384 464H64C37.533 464 16 442.467 16 416V96C16 69.533 37.533 48 64 48H384C410.467 48 432 69.533 432 96V416Z"/></svg>
